X: 1936
T: Tom Walsh's Varsovianna
B: australian traditional tunes wiki
M:3/4
L:1/8
R: Varsovienne
Q: 1/4=100
K:G
V:1 
|:"D"DE FG AG|F2 [F2d2][F2d2]|DE FG AG|"G"[D4B4][D2B2]|"Em"BB c2B2|1B2"D"A4|"A"FF F2E2|"D"E2D4:|2"C"BAE4|"D"FED2F2|"G"G6||
|:"G"BBA2G2|G2F4|"C"E"D"EF2E2|"G"D6|"Em"BBc2B2|1B2"D"A2-A2|"A"GGF2E2|"D"E2D4:|2"C"BAE4|"D"FED2F2|"G"G6||
% abcbook-tune_id 6342d5be5a5c9532e1a998f8


% abcbook-boost 0
% abcbook-tablature 
% abcbook-transpose 
% abcbook-lastupdated 1665324488901
% abcbook-soundfonts 
% abcbook-repeats 1
% NFF Book 2009

